X: 2
T: Let Us Waa to the Wedding
S: OFarrells \`i Pocket Companion, vol. II, 1806, page 97
M: 9/8
L: 1/8
R: Slip Jig
K: G Major
|: DE | GAG Gge dBG | ABA ABd e3 | GAB gfe dcB | ABA BAG E2 :|
|: d | gdg g/a/bg fed | edB (gab) a3 | bag g/a/bg fed |[1 e/f/ge dcA A2 :|
[2 e/f/gf edB AGE ||
|: GGG Gge dBG | AAA ABc e3 | GAB ga/g/f/e/ dcB | ABA BAG E2 :|
